!!!COM:	Johannes Ockeghem
!!!CDT:	~1425-1497/02/06
!!!OPR:	Missa Au travail suis
!!!ONM:	3
!!!OTL:	Credo
!!!AGN:	Mass; Credo
!!!SCT:	Ock1002c
!!!SCA:	Ock1002c
!!!voices:	4
!!!voices-OPR:	4
**kern	**kern	**kern	**kern
*staff4	*staff3	*staff2	*staff1
*Ivox	*Ivox	*Ivox	*Ivox
*I"Bassus	*I"Tenor	*I"Contratenor	*I"Discantus
*I'B	*I'T	*I'Ct	*I'D
*>[A,B]	*>[A,B]	*>[A,B]	*>[A,B]
*>A	*>A	*>A	*>A
*clefF4	*clefF4	*clefGv2	*clefG2
*k[]	*k[]	*k[]	*k[]
*M2/1	*M2/1	*M2/1	*M2/1
*met(C)	*met(C)	*met(C)	*met(C)
!!section: Patrem
!!!OMD: Patrem
=1-	=1-	=1-	=1-
0r	1D	0r	0r
.	1F	.	.
=2	=2	=2	=2
1r	1E	0r	0r
1E	1AA	.	.
=3	=3	=3	=3
1F	1r	0r	0r
1E	1G	.	.
=4	=4	=4	=4
2C/	1A	0r	0r
2D\	.	.	.
2AA/	2F\	.	.
[2D\	2D\	.	.
=5	=5	=5	=5
2D\]	1E	1r	1r
2C#i/	.	.	.
1D	1D	2r	2r
.	.	2d\	2a/
=6	=6	=6	=6
0r	0r	2f\	2a/
.	.	2e\	2g/
.	.	2c\	2a/
.	.	2d\	2b\
=7	=7	=7	=7
1r	0r	2.A/	2.cc\
.	.	4B\	4b\
2r	.	4c\	2g/
.	.	4d\	.
2G\	.	2B\	2r
=8	=8	=8	=8
2A\	0r	2A/	0r
2.A\	.	2c\	.
.	.	2c\	.
4A\	.	.	.
2E\	.	[2c\	.
=9	=9	=9	=9
2r	0r	4c\]	0r
.	.	4c\	.
2A\	.	2A/	.
2G\	.	2B\	.
2A\	.	2c\	.
=10	=10	=10	=10
2.B-i\	1.r	2.d\	0r
4A\	.	4c\	.
1F	.	1A	.
.	[2F\	.	.
=11	=11	=11	=11
0r	2F\]	0r	1a
.	2F\	.	.
.	2D\	.	2f/
.	2E\	.	2g/
=12	=12	=12	=12
0r	2F\	0r	2f/
.	2G\	.	2d/
.	2A\	.	2c/
.	2B-i\	.	[2f/
=13	=13	=13	=13
1r	2G\	0r	2f/]
.	2r	.	2e/
2r	1F	.	1f
[2F\	.	.	.
=14	=14	=14	=14
2F\]	2F\	0r	0r
2F\	1A	.	.
1A	.	.	.
.	2A\	.	.
=15	=15	=15	=15
2A\	2.D\	0r	0r
2.A\	.	.	.
.	4D\	.	.
.	2D\	.	.
4A\	.	.	.
2A\	2C/	.	.
=16	=16	=16	=16
2B\	2D\	0r	0r
1c	1AA	.	.
[2A\	2C/	.	.
=17	=17	=17	=17
4A\]	1BB	1r	0r
4F#i\	.	.	.
2G#i\	.	.	.
2A\	1AA	2e\	.
2E\	.	2e\	.
=18	=18	=18	=18
2r	2F\	2d\	0r
2.A\	2F\	2d\	.
.	2E\	1c	.
4G\	.	.	.
2E\	2E\	.	.
=19	=19	=19	=19
2F\	1D	1d	2f/
2.A\	.	.	2f/
.	1C	2r	2e/
4G\	.	.	.
2G\	.	2e\	2e/
=20	=20	=20	=20
2F\	2.D\	1f	1d
1A	.	.	.
.	4C/	.	.
.	1AA	1e	1c
[2A\	.	.	.
=21	=21	=21	=21
4A\]	2D\	0r	2d/
4B\	.	.	.
2.c\	2C/	.	2.e/
.	1E	.	.
4B\	.	.	4d/
2G\	.	.	2B/
=22	=22	=22	=22
2.A\	1AA	2r	1A
.	.	2e\	.
4G\	.	.	.
1E	1r	1g	1r
=23	=23	=23	=23
1D	0r	1f	2r
.	.	.	2a/
1r	.	2e\	1cc
.	.	[2a\	.
=24	=24	=24	=24
0r	0r	2a\]	1b
.	.	2g\	.
.	.	2f\	2a/
.	.	2f\	[2a/
=25	=25	=25	=25
0r	0r	2e\	2a/]
.	.	2e\	2g/
.	.	1d	2a/
.	.	.	2f/
=26	=26	=26	=26
0r	0r	1c	2e/
.	.	.	2e/
.	.	1d	2d/
.	.	.	[2f/
=27	=27	=27	=27
1F	0r	1A	4f/]
.	.	.	4e/
.	.	.	2c/
1E	.	1r	1r
=28	=28	=28	=28
2D\	1F	0r	0r
2.D\	.	.	.
.	1E	.	.
4C/	.	.	.
2AA/	.	.	.
=29	=29	=29	=29
2r	2D\	0r	0r
2D\	2.D\	.	.
2F\	.	.	.
.	4C/	.	.
2E\	2AA/	.	.
=30	=30	=30	=30
2F\	0r	2r	0r
2G\	.	2d\	.
1A	.	2f\	.
.	.	2e\	.
=31	=31	=31	=31
0r	2r	2f\	1.r
.	2B-i\	2g\	.
.	1A	1a	.
.	.	.	2cc\
=32	=32	=32	=32
0r	1G	0r	1b
.	1F	.	1a
=33	=33	=33	=33
1B-	0r	1r	1g
2A\	.	1a	1cc
2F\	.	.	.
=34	=34	=34	=34
2G\	0r	2.g\	1b
2.D\	.	.	.
.	.	4f\	.
.	.	1d	1a
4E\	.	.	.
2F\	.	.	.
=35	=35	=35	=35
2G\	0r	2.e\	2g/
2A\	.	.	2e/
.	.	4d\	.
2B\	.	2B\	2d/
2G\	.	[2d\	[2g/
=36	=36	=36	=36
1A	0r	2d\]	2g/]
.	.	2c\	2f#i/
1G	.	1d	1g
=37	=37	=37	=37
0r	2.A\	2r	0r
.	.	2.e\	.
.	4A\	.	.
.	2A\	.	.
.	.	4e\	.
.	[2c\	2e\	.
=38	=38	=38	=38
0r	2c\]	2e\	0r
.	2A\	2f\	.
.	2B-i\	1g	.
.	2G\	.	.
=39	=39	=39	=39
0r	1F	1a	1r
.	1r	2f\	1a
.	.	2f\	.
=40	=40	=40	=40
0r	0r	2f\	2a/
.	.	2f\	2a/
.	.	2.f\	2a/
.	.	.	[2cc\
.	.	4e\	.
=41	=41	=41	=41
0r	0r	2c\	2cc\]
.	.	2.f\	2a/
.	.	.	2b-i\
.	.	4d\	.
.	.	2e\	2g/
=42	=42	=42	=42
0r	0r	2f\	1f
.	.	2d\	.
.	.	1c	1e
=43	=43	=43	=43
0r	1AA	2c\	2e/
.	.	2c\	2.a/
.	1C	2.e\	.
.	.	.	4g/
.	.	.	[2g/
.	.	4d\	.
=44	=44	=44	=44
1G	1E	2B\	4g/]
.	.	.	4f/
.	.	2c\	4e/
.	.	.	4d/
[1A	2.D\	2d\	2f/
.	.	2r	4e/
.	4C/	.	[4e/
=45	=45	=45	=45
2A\]	2AA/	2c\	4e/]
.	.	.	4c/
1F	1D	4d\	2B/
.	.	2f\	.
.	.	.	2A/
.	.	4d\	.
2E\	2G\	2e\	2c/
=46	=46	=46	=46
2.D\	2F\	2.f\	4d/
.	.	.	2f/
.	2.A\	.	.
4C/	.	4e\	4g/
2AA/	.	2c\	2a/
.	4F\	.	.
2GG/	2G\	2e\	[2b-\
=47	=47	=47	=47
1D	2D\	2f\	4b-\]
.	.	.	4a/
.	2F\	1d	2.a/
1AA	1E	.	.
.	.	.	4g/
.	.	2c#i\	2e/
=48	=48	=48	=48
1A	0D	2.d\	1f
.	.	4c\	.
1r	.	1A	1d
=49	=49	=49	=49
1BB	0r	0r	0r
1C	.	.	.
=50	=50	=50	=50
2.D\	1BB	0r	0r
4C/	.	.	.
2AA/	1C	.	.
[2A\	.	.	.
=51	=51	=51	=51
2A\]	1D	0r	0r
2F\	.	.	.
2E\	2AA/	.	.
2F\	[2A\	.	.
=52	=52	=52	=52
1D	2A\]	0r	0r
.	2F\	.	.
2C/	2E\	.	.
[2D\	2F\	.	.
=53	=53	=53	=53
2D\]	1D	0r	0r
2BB/	.	.	.
2AA/	2C/	.	.
2GG/	[2D\	.	.
=54	=54	=54	=54
2.D\	2D\]	0r	0r
.	2BB/	.	.
4BB/	.	.	.
2C/	2AA/	.	.
2D\	2GG/	.	.
=55	=55	=55	=55
2F\	2.D\	0r	0r
2E\	.	.	.
.	4BB/	.	.
1A	2C/	.	.
.	[2D\	.	.
=56	=56	=56	=56
2F\	2D\]	0r	0r
2E\	2C/	.	.
2D\	1D	.	.
[2E\	.	.	.
=57	=57	=57	=57
4E\]	2C/	0r	0r
8D/L	.	.	.
8C/J	.	.	.
2BB/	1D	.	.
2GG/	.	.	.
2C/	2AA/	.	.
=58	=58	=58	=58
2BB/	2D\	0r	0r
1D	2F\	.	.
.	1E	.	.
2C#i/	.	.	.
=59	=59	=59	=59
1D	1D	1r	1r
1r	1r	2c\	2e/
.	.	2d\	2f/
=60	=60	=60	=60
0r	0r	2e\	2g/
.	.	2e\	2g/
.	.	2e\	2g/
.	.	2e\	2g/
=61	=61	=61	=61
0r	0r	2.e\	1g
.	.	4d\	.
.	.	2B\	2g/
.	.	2c\	[2g/
=62	=62	=62	=62
0r	0r	2G/	2g/]
.	.	1A	2f/
.	.	.	2e/
.	.	2c\	[2a/
=63	=63	=63	=63
0r	0r	1B	2a/]
.	.	.	2g#i/
.	.	1A	1a
=64	=64	=64	=64
0r	0r	0r	1a
.	.	.	1b-
=65	=65	=65	=65
0r	0r	1a	1a
.	.	1b-	2.g/
.	.	.	4f/
=66	=66	=66	=66
0r	0r	2a\	1a
.	.	2f\	.
.	.	2g\	2g/
.	.	2b-i\	[2g/
=67	=67	=67	=67
0r	0r	1a	2g/]
.	.	.	2f#i/
.	.	1g	1g
=68	=68	=68	=68
1A	1D	2f\	1r
.	.	1d	.
1B-	1G	.	1g
.	.	2e\	.
=69	=69	=69	=69
1A	2F\	1f	1a
.	1D	.	.
2F\	.	1d	1b
2G\	2BB/	.	.
=70	=70	=70	=70
1A	2AA/	2c\	1.cc
.	2.C/	1e	.
2G\	.	.	.
.	4BB/	.	.
[2G\	2GG/	2d\	[2b\
=71	=71	=71	=71
2G\]	1D	0d	4b\]
.	.	.	4g/
2F#i\	.	.	2a/
1G	1GG	.	1b
=72	=72	=72	=72
0r	1G	0r	2r
.	.	.	1b-i
.	2G\	.	.
.	[2G\	.	2b-i\
=73	=73	=73	=73
0r	2G\]	0r	1b-i
.	2G\	.	.
.	2G\	.	2b-i\
.	2G\	.	2b-i\
=74	=74	=74	=74
0r	1E	0r	2b-i\
.	.	.	2g/
.	1D	.	2r
.	.	.	[2b-i\
=75	=75	=75	=75
0r	2G\	0r	2b-\]
.	2A\	.	1a
.	2.B-i\	.	.
.	.	.	2g/
.	4A\	.	.
=76	=76	=76	=76
2r	1F	1r	1a
1A	.	.	.
.	1r	1e	1r
[2c\	.	.	.
=77	=77	=77	=77
2c\]	0r	1a	0r
2c\	.	.	.
1F	.	2a\	.
.	.	[2f\	.
=78	=78	=78	=78
1B-	0r	2f\]	0r
.	.	1b-	.
2G\	.	.	.
2F\	.	[2a\	.
=79	=79	=79	=79
2.A\	0r	4a\]	0r
.	.	4f\	.
.	.	1f	.
4B\	.	.	.
1c	.	.	.
.	.	2e\	.
=80	=80	=80	=80
1F	1r	1f	1r
[1A	[1F	[1d	[1f
=81	=81	=81	=81
1A]	1F]	1d]	1f]
[1c	[1C	[1e	[1g
=82	=82	=82	=82
1c]	1C]	1e]	1g]
[1A	1D	1d	2f/
.	.	.	[2a/
=83	=83	=83	=83
0A]	2AA/	1e	4a/]
.	.	.	4g/
.	2C/	.	2e/
.	2D\	2.f\	1d
.	[2F\	.	.
.	.	4e\	.
=84	=84	=84	=84
1r	2F\]	2.c\	2a/
.	2E\	.	2b\
.	.	4d\	.
[1G	2.C/	2.e\	2.cc\
.	4D\	4c\	4b\
=85	=85	=85	=85
2G\]	2E\	2B\	2g/
2F\	2D\	2r	2a/
4E\	[1G	2.e\	2g/
2C/	.	.	.
.	.	.	[2e/
4D\	.	4d\	.
=86	=86	=86	=86
2E\	2G\]	2B\	2e/]
2AA/	1A	2c\	1f
1D	.	2A/	.
.	2F\	[2A/	[2d/
=87	=87	=87	=87
2AA/	1E	2A/]	2d/]
2C/	.	2G/	2c#i/
2r	[1Dl	[1Al	[1dl
[2F\	.	.	.
=88	=88	=88	=88
2F\]	0D_	0A_	0d_
2D\	.	.	.
2.F\	.	.	.
4G\	.	.	.
=89	=89	=89	=89
0Al	0D]	0A]	0d]
!!LO:LB:i:g=z
=90||	=90||	=90||	=90||
*>B	*>B	*>B	*>B
*clefF4	*clefF4	*clefGv2	*clefG2
*k[]	*k[]	*k[]	*k[]
*M2/1	*M2/1	*M2/1	*M2/1
*met(C|)	*met(C|)	*met(C|)	*met(C|)
!!section: Et resurrexit
!!!OMD: Et resurrexit
0r	0AA	0r	0a
=91	=91	=91	=91
0r	1C	0r	1g
.	1C	.	1e
=92	=92	=92	=92
0r	1.D	0r	1f
.	.	.	[1a
.	4C/	.	.
.	4BB/	.	.
=93	=93	=93	=93
0r	0AA	0r	2a/]
.	.	.	4g/
.	.	.	4f/
.	.	.	1e
=94	=94	=94	=94
0r	1.C	0r	1r
.	.	.	[1g
.	2C/	.	.
=95	=95	=95	=95
0r	1C	0r	2g/]
.	.	.	2g/
.	[1E	.	1g
=96	=96	=96	=96
0r	2E\]	0r	1.b
.	2D\	.	.
.	1D	.	.
.	.	.	2a/
=97	=97	=97	=97
0r	1D	0r	1a
.	[1F	.	1a
=98	=98	=98	=98
0r	1F]	0r	0cc
.	1C	.	.
=99	=99	=99	=99
0r	0F	0r	1a
.	.	.	1cc
=100	=100	=100	=100
0r	0G	0r	1b
.	.	.	[1dd
=101	=101	=101	=101
0r	0F	0r	2dd\]
.	.	.	4cc\
.	.	.	4b\
.	.	.	1a
=102	=102	=102	=102
0AA	0r	1r	0r
.	.	[1e	.
=103	=103	=103	=103
1C	0r	1e]	0r
1C	.	1e	.
=104	=104	=104	=104
1.D	0r	1d	0r
.	.	[1f	.
4C/	.	.	.
4BB/	.	.	.
=105	=105	=105	=105
1AA	0r	2f\]	0r
.	.	4e\	.
.	.	4d\	.
1AA	.	1c	.
=106	=106	=106	=106
1C	0r	1c	0r
1C	.	1e	.
=107	=107	=107	=107
1C	0r	1e	0r
[1E	.	1e	.
=108	=108	=108	=108
2E\]	0r	1.g	0r
2D\	.	.	.
1D	.	.	.
.	.	2f\	.
=109	=109	=109	=109
1D	0r	1f	0r
[1F	.	1c	.
=110	=110	=110	=110
1F]	0r	1f	0r
1C	.	1g	.
=111	=111	=111	=111
0F	0r	1a	0r
.	.	1f	.
=112	=112	=112	=112
0G	0r	1d	0r
.	.	1e	.
=113	=113	=113	=113
0F	0r	0f	1r
.	.	.	1a
=114	=114	=114	=114
0r	0r	1r	1cc
.	.	1f	1cc
=115	=115	=115	=115
0r	0r	1a	1f
.	.	1a	1f
=116	=116	=116	=116
0r	0r	1.d	1b-
.	.	.	1b-i
.	.	2e\	.
=117	=117	=117	=117
0r	0r	1f	1a
.	.	1f	[1cc
=118	=118	=118	=118
0r	0r	1c	2cc\]
.	.	.	2b\
.	.	1c	1g
=119	=119	=119	=119
0r	0r	1d	1f
.	.	1d	[1a
=120	=120	=120	=120
0r	1r	1A	2a/]
.	.	.	2g/
.	1AA	1r	1e
=121	=121	=121	=121
1r	1BB	0r	0r
1AA	1C	.	.
=122	=122	=122	=122
1BB	1D	1f	0r
1C	1E	1e	.
=123	=123	=123	=123
1D	1D	0r	1g
1E	1G	.	1a
=124	=124	=124	=124
1D	2F\	0r	1f
.	2D\	.	.
1G	1E	.	1e
=125	=125	=125	=125
2F\	1D	0r	0r
2D\	.	.	.
1E	1C	.	.
=126	=126	=126	=126
2D\	1D	0r	0r
2F\	.	.	.
2G\	2E\	.	.
[2A\	[2F\	.	.
=127	=127	=127	=127
2A\]	2F\]	0r	0r
4G\	4E\	.	.
4F\	4D\	.	.
1E	1C	.	.
=128	=128	=128	=128
1r	1r	1r	1r
[1D	[1F	[1d	[1a
=129	=129	=129	=129
1D]	1F]	1d]	1a]
1D	1F	1d	1a
=130	=130	=130	=130
0D	0F	0d	0a
=131	=131	=131	=131
1D	1F	1A	1a
1G	1E	1B	1g
=132	=132	=132	=132
1G	1E	1c	1e
[1A	[1D	[1d	[1f
=133	=133	=133	=133
1A]	1D]	2d\]	2f/]
.	.	4c\	4e/
.	.	4d\	4f/
1c	1C	1e	2g/
.	.	.	2a/
=134	=134	=134	=134
2B\	2D\	1f	2b\
2A\	1AA	.	1cc
2E\	.	2e\	.
[2A\	2C/	2c\	2a/
=135	=135	=135	=135
2A\]	1BB	1d	2b\
2G#i\	.	.	2dd\
1A	1AA	1r	1cc
=136	=136	=136	=136
1A	0r	0e	0r
1c	.	.	.
=137	=137	=137	=137
1c	0r	1e	0r
[1B	.	1g	.
=138	=138	=138	=138
2B\]	0r	1g	0r
2G\	.	.	.
1A	.	[1f	.
=139	=139	=139	=139
1B	0r	2f\]	0r
.	.	2d\	.
[1c	.	1e	.
=140	=140	=140	=140
1c]	0r	0g	0r
1c	.	.	.
=141	=141	=141	=141
1.c	0r	1g	0r
.	.	[1a	.
2c\	.	.	.
=142	=142	=142	=142
1c	0r	2a\]	0r
.	.	2a\	.
1F	.	1a	.
=143	=143	=143	=143
1G	0r	2g\	0r
.	.	1e	.
1A	.	.	.
.	.	2f\	.
=144	=144	=144	=144
1G	0r	2e\	0r
.	.	1g	.
2c\	.	.	.
[2c\	.	2e\	.
=145	=145	=145	=145
2c\]	0r	1d	0r
2B\	.	.	.
1c	.	1c	.
=146	=146	=146	=146
0r	0C	0r	1r
.	.	.	[1e
=147	=147	=147	=147
0r	1C	0r	1e]
.	1E	.	1e
=148	=148	=148	=148
0r	1E	0r	1g
.	1G	.	1g
=149	=149	=149	=149
0r	1G	0r	1b
.	1D	.	1b
=150	=150	=150	=150
0r	1.F	0r	1a
.	.	.	[1cc
.	2E\	.	.
=151	=151	=151	=151
0r	1C	0r	2cc\]
.	.	.	2b\
.	2E\	.	2g/
.	2F\	.	[2a/
=152	=152	=152	=152
0r	1D	0r	2a/]
.	.	.	4g/
.	.	.	4f/
.	1C	.	1e
=153	=153	=153	=153
1E	0r	1c	0r
1D	.	1d	.
=154	=154	=154	=154
1D	0r	1f	0r
1C	.	1e	.
=155	=155	=155	=155
0r	1E	0r	1g
.	1D	.	1a
=156	=156	=156	=156
0r	1D	0r	1f
.	1C	.	1e
=157	=157	=157	=157
1r	1C	0r	0r
1D	1F	.	.
=158	=158	=158	=158
0A	1F	0r	0r
.	[1E	.	.
=159	=159	=159	=159
1G	1E]	0r	0r
1F	[1D	.	.
=160	=160	=160	=160
1.A	1D]	0r	0r
.	[1AA	.	.
4G\	.	.	.
4F\	.	.	.
=161	=161	=161	=161
1E	1AA]	1r	1r
1r	1r	[1f	1a
=162	=162	=162	=162
0r	0r	1f]	1a
.	.	1f	[1cc
=163	=163	=163	=163
0r	0r	1c	2cc\]
.	.	.	2b\
.	.	1e	1g
=164	=164	=164	=164
0r	0r	1f	1f
.	.	[1g	[1b-
=165	=165	=165	=165
0r	0r	2g\]	1b-]
.	.	2f\	.
.	.	2f\	1a
.	.	2e\	.
=166	=166	=166	=166
1r	1r	1c	1a
[1c	1F	1r	1a
=167	=167	=167	=167
1c]	1F	1f	1.a
1c	[1F	1f	.
.	.	.	2a/
=168	=168	=168	=168
1d	2F\]	1.f	1a
.	2E\	.	.
1d	1D	.	1b
.	.	2f\	.
=169	=169	=169	=169
1G	1C	1e	0cc
1G	1E	1c	.
=170	=170	=170	=170
2A\	1F	1.f	1a
1c	.	.	.
.	[1G	.	[1b
2B\	.	2d\	.
=171	=171	=171	=171
2B\	1G]	1e	1b]
2A\	.	.	.
1c	1F	[1f	[1a
=172	=172	=172	=172
1.A	1F	1f]	1a]
.	1E	1r	1r
2B\	.	.	.
=173	=173	=173	=173
2c\	1E	0r	0r
4B\	.	.	.
4c\	.	.	.
1d	[1D	.	.
=174	=174	=174	=174
2c\	1D]	0r	0r
2A\	.	.	.
2B-i\	1D	.	.
[2A\	.	.	.
=175	=175	=175	=175
2A\]	1AA	0r	0r
2F\	.	.	.
1E	1C	.	.
=176	=176	=176	=176
1D	1D	0r	0r
1F	1AA	.	.
=177	=177	=177	=177
1E	1AA	0r	0r
1D	1F	.	.
=178	=178	=178	=178
1D	1F	0r	0r
1G	1E	.	.
=179	=179	=179	=179
1G	1E	0r	0r
1F	1D	.	.
=180	=180	=180	=180
1F	1D	0r	0r
2.E\	1AA	.	.
4F\	.	.	.
=181	=181	=181	=181
2G\	2BB/	0r	0r
1A	1AA	.	.
2D\	[2D\	.	.
=182	=182	=182	=182
1E	2D\]	0r	0r
.	2C#i/	.	.
1D	1D	.	.
=183	=183	=183	=183
1r	0r	0g	0r
1B-i	.	.	.
=184	=184	=184	=184
1A	0r	1f	0r
1A	.	1f	.
=185	=185	=185	=185
1G	0r	1.g	0r
[1B-i	.	.	.
.	.	4f\	.
.	.	4e\	.
=186	=186	=186	=186
1B-]	0r	1d	0r
2A\	.	2.c\	.
2F\	.	.	.
.	.	4d\	.
=187	=187	=187	=187
2G\	0r	2e\	0r
1A	.	2f\	.
.	.	2e\	.
2c\	.	[2a\	.
=188	=188	=188	=188
1B	0r	2a\]	0r
.	.	2g#i\	.
1A	.	[1a	.
=189	=189	=189	=189
1F	0r	1a]	0r
1B-	.	1r	.
=190	=190	=190	=190
2A\	0r	1f	0r
2F\	.	.	.
1G	.	1b-	.
=191	=191	=191	=191
2F\	0r	2a\	0r
2D\	.	2f\	.
2r	.	1g	.
2C/	.	.	.
=192	=192	=192	=192
2D\	0r	2f\	0r
2F\	.	1d	.
1E	.	.	.
.	.	2B\	.
=193	=193	=193	=193
1AA	0r	2c\	0r
.	.	1e	.
1r	.	.	.
.	.	2c\	.
=194	=194	=194	=194
0r	1G	1B	0r
.	1A	1A	.
=195	=195	=195	=195
0r	2G\	0r	1r
.	2F\	.	.
.	1E	.	1g
=196	=196	=196	=196
0r	1D	0r	1a
.	1r	.	2g/
.	.	.	2f/
=197	=197	=197	=197
0r	1C	0r	1e
.	1F	.	2c/
.	.	.	[2d/
=198	=198	=198	=198
0r	1.F	0r	2d/]
.	.	.	2c/
.	.	.	1A
.	2G\	.	.
=199	=199	=199	=199
0r	1A	0r	2r
.	.	.	2.c/
.	1E	.	.
.	.	.	4d/
.	.	.	2e/
=200	=200	=200	=200
0r	2r	0r	2f/
.	1E	.	1g
.	2D\	.	[2f/
=201	=201	=201	=201
0r	1E	0r	2f/]
.	.	.	2.e/
.	1F	.	.
.	.	.	4c/
.	.	.	2d/
=202	=202	=202	=202
1r	1E	1r	1e
1A	1AA	1e	1r
=203	=203	=203	=203
1A	1C	1c	1e
1E	1C	1c	[1g
=204	=204	=204	=204
1G	1BB	1d	2g/]
.	.	.	2a/
1G	1BB	1d	2b\
.	.	.	4a/
.	.	.	4b\
=205	=205	=205	=205
2r	1AA	1e	2.cc\
2A\	.	.	.
.	.	.	4b\
2G\	1C	2r	1g
2E\	.	2e\	.
=206	=206	=206	=206
2D\	2D\	2f\	1r
2A\	2F\	1d	.
2B\	1E	.	1g
2G\	.	2c\	.
=207	=207	=207	=207
1A	1D	2d\	2f/
.	.	2f\	2.a/
[1c	1AA	2e\	.
.	.	.	4g/
.	.	[2a\	[2e/
=208	=208	=208	=208
2c\]	1C	4a\]	2e/]
.	.	4g\	.
2B\	.	2e\	2g/
1A	1D	2f\	1f
.	.	2d\	.
=209	=209	=209	=209
1G	1E	1c	1e
2A\	2F\	1d	2r
2B\	[2G\	.	[2b\
=210	=210	=210	=210
2G\	2G\]	2r	2b\]
1A	2F\	1f	1cc
.	1A	.	.
2AA/	.	2e\	2a/
=211	=211	=211	=211
1E	2.G\	1e	1b
.	4F\	.	.
2.F\	2.A\	2.c\	1a
4E\	4G\	4d\	.
=212	=212	=212	=212
2C/	2E\	2e\	2g/
2F\	2D\	2f\	2a/
2r	2C/	2e\	2cc\
[2BB-i/	[2D\	[2f\	[2b-i\
=213	=213	=213	=213
2BB-/]	2D\]	2f\]	2b-\]
2D\	2F\	1d	1.a
1AA	1E	.	.
.	.	2c#i\	.
=214	=214	=214	=214
[0Al	[0Dl	[0dl	2.f/
.	.	.	4d/
.	.	.	2.f/
.	.	.	4g/
=215	=215	=215	=215
0A]	0D]	0d]	0al
==	==	==	==
*-	*-	*-	*-
!!!RDF**kern: l=long note in original notation
!!!RDF**kern: i=editorial accidental
!!!RDF**kern: V=start of tuplet marker
!!!RDF**kern: Z=end of tuplet marker
!!!ENC:	Jesse Rodin 8-17-2012
!!!END:	2012/08/17/
!!!EED:	Jesse Rodin
!!!EEV:	2012/08/17/
!!!ONB:	Translated from MusicXML and edited on 2012/08/17/ by Craig Sapp
!!muse2ps: T^@{OPR}^u^@{ONM}{. }@{OTL}^C^@{COM}^i2I150v85,85,85,150Q16
